communes/2761.svg

<?xml version="1.0" encoding="UTF-8"?>
<svg version="1.1" viewBox="0 0 540 620" xmlns="http://www.w3.org/2000/svg" xmlns:cc="http://creativecommons.org/ns#" xmlns:dc="http://purl.org/dc/elements/1.1/" xmlns:rdf="http://www.w3.org/1999/02/22-rdf-syntax-ns#">
<metadata>
<rdf:RDF>
<cc:Work rdf:about="">
<dc:format>image/svg+xml</dc:format>
<dc:type rdf:resource="http://purl.org/dc/dcmitype/StillImage"/>
</cc:Work>
</rdf:RDF>
</metadata>
<title>Wappen von Aesch</title>
<desc>Wappen der Schweizer Gemeinde Aesch, Kanton Baselland</desc>
<path d="m4.5 4.5h531v345.5a265.5 265.5 0 0 1-531 0z" fill="#fff" stroke="#000" stroke-width="9"/>
<path d="m380 107.2 23-72.2 23 72.2 74-16.3-51 56.1 51 56.1-74-16.3-23 72.2-23-72.2-74 16.3 51-56.1-51-56.1z" fill="#e2001a" stroke="#000" stroke-width="4"/>
<path transform="rotate(-35,30,36)" d="m30 36c16 0 3 66 42 154 45 99 82 100 82 112 0 11-60 48-65 130 59-7 68-28 75-21s-14 28-14 64 21 57 14 64-16-14-75-21c8 90 55 114 47 122-7 8-26-17-106-17s-99 25-106 17c-8-8 39-32 47-122-59 7-68 28-75 21s14-28 14-64-21-57-14-64 16 14 75 21c-5-82-65-119-65-130 0-12 37-13 82-112 39-88 26-154 42-154"/>
</svg>

<?xml version="1.0" encoding="UTF-8" standalone="no"?>
<svg
   xmlns:dc="http://purl.org/dc/elements/1.1/"
   xmlns:cc="http://creativecommons.org/ns#"
   xmlns:rdf="http://www.w3.org/1999/02/22-rdf-syntax-ns#"
   xmlns:svg="http://www.w3.org/2000/svg"
   xmlns="http://www.w3.org/2000/svg"
   xmlns:sodipodi="http://sodipodi.sourceforge.net/DTD/sodipodi-0.dtd"
   xmlns:inkscape="http://www.inkscape.org/namespaces/inkscape"
   version="1.1"
   width="540"
   height="620"
   viewBox="0,0 540,620"
   id="svg12"
   sodipodi:docname="2761.svg">
  <metadata
     id="metadata18">
    <rdf:RDF>
      <cc:Work
         rdf:about="">
        <dc:format>image/svg+xml</dc:format>
        <dc:type
           rdf:resource="http://purl.org/dc/dcmitype/StillImage" />
      </cc:Work>
    </rdf:RDF>
  </metadata>
  <defs
     id="defs16" />
  <sodipodi:namedview
     pagecolor="#ffffff"
     bordercolor="#666666"
     borderopacity="1"
     objecttolerance="10"
     gridtolerance="10"
     guidetolerance="10"
     inkscape:pageopacity="0"
     inkscape:pageshadow="2"
     inkscape:window-width="640"
     inkscape:window-height="480"
     id="namedview14" />
  <title
     id="title2">Wappen von Aesch</title>
  <desc
     id="desc4">Wappen der Schweizer Gemeinde Aesch, Kanton Baselland</desc>
  <path
     d="M 4.5,4.5 h 531 V 350 A 265.5,265.5 0 0,1 4.5,350 z"
     stroke="black"
     stroke-width="9"
     fill="white"
     id="path6" />
  <path
     d="M 380,107.2 L 403,35 426,107.2 500,90.9 449,147 500,203.1 426,186.8 403,259 380,186.8 306,203.1 357,147 306,90.9 z"
     stroke="black"
     stroke-width="4"
     fill="#e2001a"
     id="path8" />
  <path
     d="M 30,36 c 16,0 3,66 42,154 45,99 82,100 82,112 0,11 -60,48 -65,130 59,-7 68,-28 75,-21 7,7 -14,28 -14,64 0,36 21,57 14,64 -7,7 -16,-14 -75,-21 8,90 55,114 47,122 -7,8 -26,-17 -106,-17 -80,0 -99,25 -106,17 -8,-8 39,-32 47,-122 -59,7 -68,28 -75,21 -7,-7 14,-28 14,-64 0,-36 -21,-57 -14,-64 7,-7 16,14 75,21 -5,-82 -65,-119 -65,-130 0,-12 37,-13 82,-112 39,-88 26,-154 42,-154"
     transform="rotate(-35,30,36)"
     id="path10" />
</svg>
